X: 1
T: I Am Jesus' Little Lamb
C: Words: Henrietta L. von Hayn, 1778; Translation composite. 
C: Music: 'Weil Ich Jesu Schäflein Bin' Brüder Choral-Buch, 1784.  Setting: Cyberhymnal.org
C: copyright: public domain.  This score is a part of the Open Hymnal Project, 2005 Revision.
S: Music source: Cyberhymnal.org
M: 4/4 % time signature
L: 1/4 % default length
%%staves (S1V1 S1V2) | (S2V1 S2V2) 
V: S1V1 clef=treble 
V: S1V2 
V: S2V1 clef=bass 
V: S2V2 
K: Db % key signature
%
%%MIDI program 1 0 % Piano 1
%%MIDI program 2 0 % Piano 1
%%MIDI program 3 0 % Piano 1
%%MIDI program 4 0 % Piano 1
%
% 1
[V: S1V1] [Q:1/4=112] A d B B | A G F2 | A d B B | A G F2 |
w: 1.~I am Je- sus' lit- tle lamb, Ev- er glad at heart I am; 
w: 2.~Day by day, at home, a- way, Je- sus is my Staff and Stay. 
w: 3.~Who so hap- py as I am, Ev- en now the Shep- herd's lamb? 
[V: S1V2]  F F D D | C E D2 | F F D D | C E D2 |
[V: S2V1]  D A, G, G, | E, A, A,2 | D A, G, G, | E, A, A,2 |
[V: S2V2]  D, D, G,, G,, | A,, C, D,2 | D, D, G,, G,, | A,, C, D,2 |
% 5
[V: S1V1]  A d B B | B e c A | A d B B | B e c A |
w: For my Shep- herd gen- tly guides me, Knows my need, and well pro- vides me, 
w: When I hun- ger, Je- sus feeds me, In- to pleas- ant pas- tures leads me; 
w: And when my short life is end- ed, By His an- gel host at- tend- ed, 
[V: S1V2]  F D D D | E E E E | F D D D | E E E E |
[V: S2V1]  D A, G, G, | =G, B, A, C | D A, G, G, | =G, B, A, C |
[V: S2V2]  D, F, G, G, | E, =G, A, A, | D, F, G, G, | E, =G, A, A, |
% 9
[V: S1V1]  d A B A | G F E2 | A d B e | d c d2 |]
w: Loves me ev- 'ry day the same, Ev- en calls me by my name. 
w: When I thirst, He bids me go Where the qui- et wa- ters flow. 
w: He shall fold me to His breast, There with- in His arms to rest. 
[V: S1V2]  F D D C | B, D C2 | D D D G | F E F2 |]
[V: S2V1]  A, F, G, E, | E, A, A,2 | F, A, G, B, | A, A, A,2 |]
[V: S2V2]  D, D, G,, A,, | E, F, A,2 | D, F, G, E, | A, A,, D,2 |]
% 14
